X:1
T:Quasi adagio
T:Allegro robusto
T:Béla Bartók Revised and Arranged by the Composer, January 1945 
T:Book 1 (after Hungarian Folksongs)
T:For Children Nr 21, Sz 42
C:Bela bartok
%%score { ( 1 3 ) | 2 }
L:1/8
Q:1/4=126
M:2/4
K:C
V:1 treble nm="Piano"
V:3 treble 
V:2 treble 
V:1
"^Allegro robusto,"!f! !4
2
1
![ceg][ceg]([ceg]a) | !4
1
![Af][Af]([Af]!2!d) | %2
 !3
1
![Ac](!2
1
![Ac]d)[Ae] | !^![Af]2 !^![Af]2 | !3
1
![eg][eg](!^![eg][fa]) | %5
 (!^!!4
2
![fa][eg])(!^!!4
2
![eg][df]) | (!^!!5
3
![df]!4
2
![_Bd])!4
2
![Bd]!3
1
![Ac] | %7
 !^!!5
2
1
![^FAd]2 !^![FAd]2 |!p! .!2!A.!5
2
1
!d !^!!5!d2 | .!5!c.!4
2
1
!A !^!!5!A2 | %10
 .!3!G.!3
2
1
!G(!^!!4!A!3
2
1
!G) | .!5!c.!5!c !^!!5!c2 | .!5
4
!d.!4
2
1
!d(!^!!5!e!4
2
1
!d) | %13
 .!5!c.!4
2
1
!A !^!!5!A2 | .!4!G.!4
2
1
!G!>!!3!G.!4
2
1
!G | .!5!A.!5
2
1
!A !^!!5!A2 | %16
!f! .!2
1
![fa].[fd'] !tenuto![fd']2 | .!5
1
![ec'].!5
1
![ca] !tenuto![ca]2 | %18
 .!4
1
![Bg].[Bg](!5![Ba]g) | .!5
1
![ec'].[ec'] !tenuto![ec']2 | .!4
1
![fd'].[fd'](!5![fe']d') | %21
 .!5
1
![ec'].!5
1
![ca] !tenuto![ca]2 | .!4
2
1
![Beg].[Beg].[Beg].[Beg] | %23
 .!5
2
1
![cea].[cea] !tenuto![cea]2 :| %24
V:2
 !2
4
5
![CEG][CEG] !tenuto![CEG]2 | !1
3
![DF][DF] !tenuto![DF]2 | %2
[K:bass] !1
5
![A,E]([A,E]D)!3
5
![A,C] | !^!!1
3
![F,C]2 !^![F,C]2 | %4
[K:treble] !2
5
![CG][CG](!^![CG]!1
3
![FA]) | (!^!!1
3
![FA]!2
5
![CG])(!^!!1
5
![CG]!2
4
![DF]) | %6
[K:bass] (!^!!1
3
![DF]!2
4
![_B,D])!1
3
![B,D]!2
5
![F,C] | !^!!1
5
![D,A,]2 !^![D,A,]2 | %8
 .!1!D,2 .!5!G,,2 | .A,,2 .!1!A,,2 | .!4!E,,2 .!5!E,,2 | .!2!A,,2 .!1!A,,2 | .!2!G,,2 .!3!G,,2 | %13
 .!2!A,,2 .!1!A,,2 | .!4!E,,2 .!5!E,,2 | .!2!A,,2 .!1!A,,2 | %16
[K:treble]!ped! .!5!D.!1
2
4
![FAd]!ped-up!!ped!.!5!G,.!1
2
![B,DG] | %17
"_simile" .A,!ped-up!!ped!.[CEA].A,.[CEA]!ped-up! |[K:bass]!ped! E,[G,B,E]E,[G,B,E] | %19
[K:treble] A,!ped-up!!ped![CEA]A,[CEA]!ped-up! |!ped! G,[B,DG]G,[B,DG]!ped-up! | %21
!ped! A,[CEA]A,[CEA]!ped-up! |[K:bass]!ped! E,[G,B,E]E,[G,B,E]!ped-up! | %23
[K:treble] A,[CEA]!ped! !tenuto![A,CEA]2!ped-up! :| %24
V:3
 x4 | x4 | x4 | x4 | x4 | x4 | x4 | x4 | z .[=FA] z .!3
1
![FB] | z .[CE] z .!2
1
![CE] | %10
 z .[B,E] z .[B,E] | z .[CE] z .[CE] | z .[FB] z .!
![FB] | z .[CE] z .[CE] | z [B,E] z [B,E] | %15
 z [CE] z !2
1
![CE] | x4 | x4 | x4 | x4 | x4 | x4 | x4 | x4 :| %24

